static/img/kroki/8ac660846fd8998a54a7c7ba777f5b06.svg

<?xml version="1.0" encoding="us-ascii" standalone="no"?><svg xmlns="http://www.w3.org/2000/svg" xmlns:xlink="http://www.w3.org/1999/xlink" contentStyleType="text/css" height="374px" preserveAspectRatio="none" style="width:377px;height:374px;" version="1.1" viewBox="0 0 377 374" width="377px" zoomAndPan="magnify"><defs/><g><!--class instance--><g id="elem_instance"><rect codeLine="23" fill="#3D176E" height="39.7891" id="instance" rx="2.5" ry="2.5" style="stroke:#000D19;stroke-width:0.5;" width="112" x="7" y="167.79"/><ellipse cx="22" cy="187.6845" fill="#ADD1B2" rx="11" ry="11" style="stroke:#181818;stroke-width:1.0;"/><path d="M24.9688,193.3252 Q24.3906,193.622 23.75,193.7627 Q23.1094,193.9189 22.4063,193.9189 Q19.9063,193.9189 18.5781,192.2783 Q17.2656,190.622 17.2656,187.497 Q17.2656,184.372 18.5781,182.7158 Q19.9063,181.0595 22.4063,181.0595 Q23.1094,181.0595 23.75,181.2158 Q24.4063,181.372 24.9688,181.6689 L24.9688,184.3877 Q24.3438,183.8095 23.75,183.5439 Q23.1563,183.2627 22.5313,183.2627 Q21.1875,183.2627 20.5,184.3408 Q19.8125,185.4033 19.8125,187.497 Q19.8125,189.5908 20.5,190.6689 Q21.1875,191.7314 22.5313,191.7314 Q23.1563,191.7314 23.75,191.4658 Q24.3438,191.1845 24.9688,190.6064 L24.9688,193.3252 Z " fill="#000000"/><text fill="#D9B8FF" font-family="Helvetica" font-size="17" lengthAdjust="spacing" textLength="70" x="41" y="193.5698">instance</text></g><!--class kubernetes_node--><g id="elem_kubernetes_node"><rect codeLine="26" fill="#3D176E" height="39.7891" id="kubernetes_node" rx="2.5" ry="2.5" style="stroke:#000D19;stroke-width:0.5;" width="186" x="69" y="328.58"/><ellipse cx="84" cy="348.4745" fill="#ADD1B2" rx="11" ry="11" style="stroke:#181818;stroke-width:1.0;"/><path d="M86.9688,354.1152 Q86.3906,354.412 85.75,354.5527 Q85.1094,354.7089 84.4063,354.7089 Q81.9063,354.7089 80.5781,353.0683 Q79.2656,351.412 79.2656,348.287 Q79.2656,345.162 80.5781,343.5058 Q81.9063,341.8495 84.4063,341.8495 Q85.1094,341.8495 85.75,342.0058 Q86.4063,342.162 86.9688,342.4589 L86.9688,345.1777 Q86.3438,344.5995 85.75,344.3339 Q85.1563,344.0527 84.5313,344.0527 Q83.1875,344.0527 82.5,345.1308 Q81.8125,346.1933 81.8125,348.287 Q81.8125,350.3808 82.5,351.4589 Q83.1875,352.5214 84.5313,352.5214 Q85.1563,352.5214 85.75,352.2558 Q86.3438,351.9745 86.9688,351.3964 L86.9688,354.1152 Z " fill="#000000"/><text fill="#D9B8FF" font-family="Helvetica" font-size="17" lengthAdjust="spacing" textLength="144" x="103" y="354.3598">kubernetes_node</text></g><!--class kubernetes_resource--><g id="elem_kubernetes_resource"><rect codeLine="29" fill="#3D176E" height="39.7891" id="kubernetes_resource" rx="2.5" ry="2.5" style="stroke:#000D19;stroke-width:0.5;" width="216" x="154" y="167.79"/><ellipse cx="169" cy="187.6845" fill="#ADD1B2" rx="11" ry="11" style="stroke:#181818;stroke-width:1.0;"/><path d="M171.9688,193.3252 Q171.3906,193.622 170.75,193.7627 Q170.1094,193.9189 169.4063,193.9189 Q166.9063,193.9189 165.5781,192.2783 Q164.2656,190.622 164.2656,187.497 Q164.2656,184.372 165.5781,182.7158 Q166.9063,181.0595 169.4063,181.0595 Q170.1094,181.0595 170.75,181.2158 Q171.4063,181.372 171.9688,181.6689 L171.9688,184.3877 Q171.3438,183.8095 170.75,183.5439 Q170.1563,183.2627 169.5313,183.2627 Q168.1875,183.2627 167.5,184.3408 Q166.8125,185.4033 166.8125,187.497 Q166.8125,189.5908 167.5,190.6689 Q168.1875,191.7314 169.5313,191.7314 Q170.1563,191.7314 170.75,191.4658 Q171.3438,191.1845 171.9688,190.6064 L171.9688,193.3252 Z " fill="#000000"/><text fill="#D9B8FF" font-family="Helvetica" font-size="17" lengthAdjust="spacing" textLength="174" x="188" y="193.5698">kubernetes_resource</text></g><!--class resource--><g id="elem_resource"><rect codeLine="32" fill="#3D176E" height="39.7891" id="resource" rx="2.5" ry="2.5" style="stroke:#000D19;stroke-width:0.5;" width="113" x="105.5" y="7"/><ellipse cx="120.5" cy="26.8945" fill="#ADD1B2" rx="11" ry="11" style="stroke:#181818;stroke-width:1.0;"/><path d="M123.4688,32.5352 Q122.8906,32.832 122.25,32.9727 Q121.6094,33.1289 120.9063,33.1289 Q118.4063,33.1289 117.0781,31.4883 Q115.7656,29.832 115.7656,26.707 Q115.7656,23.582 117.0781,21.9258 Q118.4063,20.2695 120.9063,20.2695 Q121.6094,20.2695 122.25,20.4258 Q122.9063,20.582 123.4688,20.8789 L123.4688,23.5977 Q122.8438,23.0195 122.25,22.7539 Q121.6563,22.4727 121.0313,22.4727 Q119.6875,22.4727 119,23.5508 Q118.3125,24.6133 118.3125,26.707 Q118.3125,28.8008 119,29.8789 Q119.6875,30.9414 121.0313,30.9414 Q121.6563,30.9414 122.25,30.6758 Q122.8438,30.3945 123.4688,29.8164 L123.4688,32.5352 Z " fill="#000000"/><text fill="#D9B8FF" font-family="Helvetica" font-size="17" lengthAdjust="spacing" textLength="71" x="139.5" y="32.7798">resource</text></g><!--reverse link resource to instance--><g id="link_resource_instance"><path codeLine="35" d="M140.5362,62.3241 C121.5062,92.8441 94.04,136.9 74.98,167.46 " fill="none" id="resource-backto-instance" style="stroke:#FFAF37;stroke-width:2.0;"/><polygon fill="none" points="150.06,47.05,135.4449,59.1495,145.6276,65.4987,150.06,47.05" style="stroke:#FFAF37;stroke-width:2.0;"/></g><!--reverse link instance to kubernetes_node--><g id="link_instance_kubernetes_node"><path codeLine="36" d="M84.4638,223.1141 C103.4938,253.6341 130.96,297.69 150.02,328.25 " fill="none" id="instance-backto-kubernetes_node" style="stroke:#FFAF37;stroke-width:2.0;"/><polygon fill="none" points="74.94,207.84,79.3724,226.2887,89.5551,219.9395,74.94,207.84" style="stroke:#FFAF37;stroke-width:2.0;"/></g><!--reverse link kubernetes_resource to kubernetes_node--><g id="link_kubernetes_resource_kubernetes_node"><path codeLine="37" d="M240.348,223.0714 C221.128,253.5914 193.35,297.69 174.11,328.25 " fill="none" id="kubernetes_resource-backto-kubernetes_node" style="stroke:#FFAF37;stroke-width:2.0;"/><polygon fill="none" points="249.94,207.84,235.2709,219.874,245.4252,226.2687,249.94,207.84" style="stroke:#FFAF37;stroke-width:2.0;"/></g><!--reverse link resource to kubernetes_resource--><g id="link_resource_kubernetes_resource"><path codeLine="38" d="M183.652,62.2814 C202.872,92.8014 230.65,136.9 249.89,167.46 " fill="none" id="resource-backto-kubernetes_resource" style="stroke:#FFAF37;stroke-width:2.0;"/><polygon fill="none" points="174.06,47.05,178.5748,65.4787,188.7291,59.084,174.06,47.05" style="stroke:#FFAF37;stroke-width:2.0;"/></g><!--SRC=[XP9BRy8m48Jl_XMME2CbHIr4wWMGglQ2gj9xvSHhOYMnqNfJH1__lQI1o7d1qJEVFRChfre2Xs9FHrv04GCwvZ9jzW95mPU8zh2skKK-KKgesRnhFbb3Du6DA80_G_u9f1FH9TvJdMG6dEDtdhKIIRP3MnfPFqyeZ3jPOCYZrhbmRac4EYu9l38oYXTATSdkevEP3ESFqCCiIi0p4WI13ACkSZFgwjmDiTLVm4D_QHjBqAlPY_YdhhQi2AzaRz2BFzhnLKYfpOxVUzfRtGaDO4lVfaBQGqKhaJi_nX4WM3hkOTsR2gA5LFD1-6KCPacrEgwD8s4IuD-C_Pwrh3pzNWC4xiDOEMOXE5jY-sPRQqwFFzFfj8bYJMQjT-BOKCOmEMvV7FO7]--></g></svg>

<svg xmlns="http://www.w3.org/2000/svg" width="377" height="374" viewBox="0 0 377 374"><rect width="112" height="39.789" x="7" y="167.79" fill="#3D176E" rx="2.5" ry="2.5" style="stroke:#000d19;stroke-width:.5"/><circle cx="22" cy="187.685" r="11" fill="#ADD1B2" style="stroke:#181818;stroke-width:1"/><path d="M24.969 193.325q-.578.297-1.219.438-.64.156-1.344.156-2.5 0-3.828-1.64-1.312-1.657-1.312-4.782t1.312-4.781q1.328-1.656 3.828-1.656.703 0 1.344.156.656.156 1.219.453v2.719q-.625-.578-1.219-.844-.594-.281-1.219-.281-1.343 0-2.031 1.078-.687 1.062-.687 3.156t.687 3.172q.688 1.062 2.031 1.062.625 0 1.219-.265.594-.281 1.219-.86z"/><text x="41" y="193.57" fill="#D9B8FF" font-family="Helvetica" font-size="17" textLength="70">instance</text><rect width="186" height="39.789" x="69" y="328.58" fill="#3D176E" rx="2.5" ry="2.5" style="stroke:#000d19;stroke-width:.5"/><circle cx="84" cy="348.474" r="11" fill="#ADD1B2" style="stroke:#181818;stroke-width:1"/><path d="M86.969 354.115q-.578.297-1.219.438-.64.156-1.344.156-2.5 0-3.828-1.64-1.312-1.657-1.312-4.782t1.312-4.781q1.328-1.656 3.828-1.656.703 0 1.344.156.656.156 1.219.453v2.719q-.625-.579-1.219-.844-.594-.281-1.219-.281-1.344 0-2.031 1.078-.687 1.062-.687 3.156t.687 3.172q.688 1.062 2.031 1.062.625 0 1.219-.265.594-.281 1.219-.86z"/><text x="103" y="354.36" fill="#D9B8FF" font-family="Helvetica" font-size="17" textLength="144">kubernetes_node</text><rect width="216" height="39.789" x="154" y="167.79" fill="#3D176E" rx="2.5" ry="2.5" style="stroke:#000d19;stroke-width:.5"/><circle cx="169" cy="187.685" r="11" fill="#ADD1B2" style="stroke:#181818;stroke-width:1"/><path d="M171.969 193.325q-.578.297-1.219.438-.64.156-1.344.156-2.5 0-3.828-1.64-1.312-1.657-1.312-4.782t1.312-4.781q1.328-1.656 3.828-1.656.703 0 1.344.156.656.156 1.219.453v2.719q-.625-.578-1.219-.844-.594-.281-1.219-.281-1.344 0-2.031 1.078-.687 1.062-.687 3.156t.687 3.172q.688 1.062 2.031 1.062.625 0 1.219-.265.594-.281 1.219-.86z"/><text x="188" y="193.57" fill="#D9B8FF" font-family="Helvetica" font-size="17" textLength="174">kubernetes_resource</text><rect width="113" height="39.789" x="105.5" y="7" fill="#3D176E" rx="2.5" ry="2.5" style="stroke:#000d19;stroke-width:.5"/><circle cx="120.5" cy="26.895" r="11" fill="#ADD1B2" style="stroke:#181818;stroke-width:1"/><path d="M123.469 32.535q-.578.297-1.219.438-.64.156-1.344.156-2.5 0-3.828-1.64-1.312-1.657-1.312-4.782t1.312-4.781q1.328-1.656 3.828-1.656.703 0 1.344.156.656.156 1.219.453v2.719q-.625-.578-1.219-.844-.594-.281-1.219-.281-1.344 0-2.031 1.078-.687 1.062-.687 3.156t.687 3.172q.688 1.062 2.031 1.062.625 0 1.219-.265.594-.281 1.219-.86z"/><text x="139.5" y="32.78" fill="#D9B8FF" font-family="Helvetica" font-size="17" textLength="71">resource</text><g fill="none"><path d="M140.536 62.324C121.506 92.844 94.04 136.9 74.98 167.46" style="stroke:#ffaf37;stroke-width:2"/><path d="m150.06 47.05-14.615 12.1 10.183 6.349z" style="stroke:#ffaf37;stroke-width:2"/></g><path fill="none" d="M84.464 223.114c19.03 30.52 46.496 74.576 65.556 105.136M74.94 207.84l4.432 18.449 10.183-6.35z" style="stroke:#ffaf37;stroke-width:2"/><g fill="none"><path d="M240.348 223.071c-19.22 30.52-46.998 74.619-66.238 105.179" style="stroke:#ffaf37;stroke-width:2"/><path d="m249.94 207.84-14.67 12.034 10.155 6.395z" style="stroke:#ffaf37;stroke-width:2"/></g><g fill="none"><path d="M183.652 62.281c19.22 30.52 46.998 74.619 66.238 105.179" style="stroke:#ffaf37;stroke-width:2"/><path d="m174.06 47.05 4.515 18.429 10.154-6.395z" style="stroke:#ffaf37;stroke-width:2"/></g></svg>
